icons/toolversions.svg

<svg width="16" height="16" viewBox="0 0 16 16" fill="none" xmlns="http://www.w3.org/2000/svg">
<path fill-rule="evenodd" clip-rule="evenodd" d="M7.5 3.5V12.5H11.6L13.3322 13.9435C13.2283 13.9801 13.1165 14 13 14H7C6.44772 14 6 13.5523 6 13V3C6 2.44772 6.44772 2 7 2H13C13.5523 2 14 2.44772 14 3V7.29764C13.597 6.65162 13.0533 6.23239 12.5 6.07273V3.5H7.5ZM5 4H3C2.44772 4 2 4.44772 2 5V11C2 11.5523 2.44772 12 3 12H5V10.5H3.5V5.5H5V4ZM10.5894 10.0209L9.19897 8.17847C8.70914 9.07846 8.81509 10.1925 9.53572 10.9132C10.1314 11.5089 11.2788 11.4952 12.0691 11.2615L13.1788 12.2403C13.1788 12.2403 13.9247 13 14 13V10.5L13.3097 9.95475C13.5434 9.16452 13.4046 8.02717 12.8089 7.43147C12.0882 6.71084 11.1266 6.66096 10.2267 7.15079L12.0691 8.54121L11.7313 9.68316L10.5894 10.0209Z" fill="#D86EAD"/>
</svg>

<svg xmlns="http://www.w3.org/2000/svg" width="16" height="16" fill="none"><path fill="#D86EAD" fill-rule="evenodd" d="M7.5 3.5v9h4.1l1.732 1.444A.998.998 0 0 1 13 14H7a1 1 0 0 1-1-1V3a1 1 0 0 1 1-1h6a1 1 0 0 1 1 1v4.298c-.403-.646-.947-1.066-1.5-1.225V3.5h-5ZM5 4H3a1 1 0 0 0-1 1v6a1 1 0 0 0 1 1h2v-1.5H3.5v-5H5V4Zm5.59 6.02L9.198 8.179c-.49.9-.384 2.014.337 2.735.595.596 1.743.582 2.533.348l1.11.98S13.925 13 14 13v-2.5l-.69-.545c.233-.79.095-1.928-.501-2.524-.72-.72-1.682-.77-2.582-.28l1.842 1.39-.338 1.142-1.142.338Z" clip-rule="evenodd"/></svg>
